Origami/48x48/apps/groove.svg

<svg width="48" height="48" version="1" xmlns="http://www.w3.org/2000/svg">
 <rect transform="matrix(0,-1,-1,0,0,0)" x="-44" y="-44" width="40" height="39.996" rx="20" ry="19.998" style="fill:#00BCF2"/>
 <path d="m24 4c-11.079 0-19.998 8.92-19.998 20 0 0.16772-4e-3 0.33329 0 0.5 0.2642-10.846 9.087-19.5 19.998-19.5s19.734 8.6536 19.998 19.5c4e-3 -0.16671 0-0.33228 0-0.5 0-11.08-8.919-20-19.998-20z" style="fill:#ffffff;opacity:.2"/>
 <path d="m4.0117 24.5c-0.0041 0.167-0.0117 0.332-0.0117 0.5 0 11.08 8.92 20 20 20s20-8.92 20-20c0-0.168-8e-3 -0.333-0.012-0.5-0.264 10.846-9.076 19.5-19.988 19.5s-19.724-8.654-19.988-19.5z" style="opacity:.2"/>
 <g transform="translate(0,1.0194785)" style="opacity:.2">
  <g transform="matrix(.8660254 -.5 .5 .8660254 -8.775749 15.212294)">
   <path d="m20.373838 10.456565a14 14 0 0 0 -9.899495 17.146429 14 14 0 0 0 17.146428 9.899495 14 14 0 0 0 10.264321 -15.173631l-2.929849 0.785051a11 11 0 0 1 -8.110929 11.490802 11 11 0 0 1 -13.472193 -7.778174 11 11 0 0 1 7.778174 -13.472194 11 11 0 0 1 12.771558 5.895357l2.92419-0.783534a14 14 0 0 0 -16.472205 -8.009601z"/>
   <path d="m30 22h8l-2 4h-6z"/>
  </g>
  <path d="m24 20a4 4 0 0 0 -4 4 4 4 0 0 0 4 4 4 4 0 0 0 4 -4 4 4 0 0 0 -4 -4zm0 2a2 2 0 0 1 2 2 2 2 0 0 1 -2 2 2 2 0 0 1 -2 -2 2 2 0 0 1 2 -2z"/>
 </g>
 <g transform="matrix(.8660254 -.5 .5 .8660254 -8.775749 15.212294)" style="fill:#71c1ff">
  <path d="m20.373838 10.456565a14 14 0 0 0 -9.899495 17.146429 14 14 0 0 0 17.146428 9.899495 14 14 0 0 0 10.264321 -15.173631l-2.929849 0.785051a11 11 0 0 1 -8.110929 11.490802 11 11 0 0 1 -13.472193 -7.778174 11 11 0 0 1 7.778174 -13.472194 11 11 0 0 1 12.771558 5.895357l2.92419-0.783534a14 14 0 0 0 -16.472205 -8.009601z" style="fill:#71c1ff"/>
  <path d="m30 22h8l-2 4h-6z" style="fill:#71c1ff"/>
 </g>
 <path d="m24 20a4 4 0 0 0 -4 4 4 4 0 0 0 4 4 4 4 0 0 0 4 -4 4 4 0 0 0 -4 -4zm0 2a2 2 0 0 1 2 2 2 2 0 0 1 -2 2 2 2 0 0 1 -2 -2 2 2 0 0 1 2 -2z" style="fill:#cae8ff"/>
</svg>

<svg xmlns="http://www.w3.org/2000/svg" width="48" height="48" version="1">
 <rect style="fill:#00BCF2" width="40" height="39.996" x="-44" y="-44" rx="20" ry="19.998" transform="matrix(0,-1,-1,0,0,0)"/>
 <path style="opacity:0.2;fill:#ffffff" d="M 24,4 C 12.921,4 4.002,12.92 4.002,24 c 0,0.16772 -0.004,0.33329 0,0.5 C 4.2662,13.654 13.089,5 24,5 c 10.911,0 19.734,8.6536 19.998,19.5 0.004,-0.16671 0,-0.33228 0,-0.5 C 43.998,12.92 35.079,4 24,4 Z"/>
 <path style="opacity:0.2" d="M 4.0117,24.5 C 4.0076,24.667 4,24.832 4,25 4,36.08 12.92,45 24,45 35.08,45 44,36.08 44,25 44,24.832 43.992,24.667 43.988,24.5 43.724,35.346 34.912,44 24,44 13.088,44 4.276,35.346 4.012,24.5 Z"/>
 <g style="opacity:0.2" transform="translate(0,1.0194785)">
  <g transform="matrix(0.8660254,-0.5,0.5,0.8660254,-8.775749,15.212294)">
   <path d="m 20.373838,10.456565 a 14,14 0 0 0 -9.899495,17.146429 14,14 0 0 0 17.146428,9.899495 14,14 0 0 0 10.264321,-15.173631 l -2.929849,0.785051 A 11,11 0 0 1 26.844314,34.604711 11,11 0 0 1 13.372121,26.826537 11,11 0 0 1 21.150295,13.354343 11,11 0 0 1 33.921853,19.2497 l 2.92419,-0.783534 A 14,14 0 0 0 20.373838,10.456565 Z"/>
   <path d="m 30,22 8,0 -2,4 -6,0 z"/>
  </g>
  <path d="m 24,20 a 4,4 0 0 0 -4,4 4,4 0 0 0 4,4 4,4 0 0 0 4,-4 4,4 0 0 0 -4,-4 z m 0,2 a 2,2 0 0 1 2,2 2,2 0 0 1 -2,2 2,2 0 0 1 -2,-2 2,2 0 0 1 2,-2 z"/>
 </g>
 <g>
  <g style="fill:#71c1ff" transform="matrix(0.8660254,-0.5,0.5,0.8660254,-8.775749,15.212294)">
   <path style="fill:#71c1ff" d="m 20.373838,10.456565 a 14,14 0 0 0 -9.899495,17.146429 14,14 0 0 0 17.146428,9.899495 14,14 0 0 0 10.264321,-15.173631 l -2.929849,0.785051 A 11,11 0 0 1 26.844314,34.604711 11,11 0 0 1 13.372121,26.826537 11,11 0 0 1 21.150295,13.354343 11,11 0 0 1 33.921853,19.2497 l 2.92419,-0.783534 A 14,14 0 0 0 20.373838,10.456565 Z"/>
   <path style="fill:#71c1ff" d="m 30,22 8,0 -2,4 -6,0 z"/>
  </g>
  <path style="fill:#cae8ff" d="m 24,20 a 4,4 0 0 0 -4,4 4,4 0 0 0 4,4 4,4 0 0 0 4,-4 4,4 0 0 0 -4,-4 z m 0,2 a 2,2 0 0 1 2,2 2,2 0 0 1 -2,2 2,2 0 0 1 -2,-2 2,2 0 0 1 2,-2 z"/>
 </g>
</svg>
